src/assets/img/Shop.svg

<svg width="24" height="24" viewBox="0 0 24 24" fill="none" xmlns="http://www.w3.org/2000/svg">
<path d="M3.00002 10V19C3.00002 20.1046 3.89545 21 5.00002 21H19C20.1046 21 21 20.1046 21 19V10M14.8333 21V15C14.8333 13.8954 13.9379 13 12.8333 13H10.8333C9.72876 13 8.83333 13.8954 8.83333 15V21M15.5 3H19.5474C19.8153 3 20.0507 3.17759 20.1243 3.43517L21.8183 9.36418C21.9157 9.7049 21.6982 10.0526 21.3465 10.0958C20.5008 10.1998 19.0158 10.3125 18 10C17.4052 9.81699 16.6425 9.38698 16.2532 9.15495C16.0923 9.05904 15.9909 8.89043 15.9753 8.70377L15.5 3ZM15.5 3L15.9699 8.63904C15.9884 8.86103 15.8828 9.07486 15.6909 9.18807C15.2879 9.42589 14.5675 9.82538 14 10C12.507 10.4594 11.493 10.4594 10 10C9.43252 9.82538 8.71209 9.42589 8.30908 9.18807C8.11725 9.07486 8.0116 8.86103 8.0301 8.63904L8.50002 3M15.5 3H8.50002M8.50002 3L8.02471 8.70377C8.00915 8.89043 7.90769 9.05904 7.7468 9.15495C7.35753 9.38698 6.59479 9.81699 6.00002 10C4.98426 10.3125 3.49918 10.1998 2.65352 10.0958C2.30182 10.0526 2.08433 9.7049 2.18168 9.36418L3.87569 3.43517C3.94928 3.17759 4.18471 3 4.4526 3H8.50002Z" stroke="white" stroke-width="1.5"/>
</svg>

<svg xmlns="http://www.w3.org/2000/svg" width="24" height="24" fill="none"><path stroke="#fff" stroke-width="1.5" d="M3 10v9a2 2 0 0 0 2 2h14a2 2 0 0 0 2-2v-9m-6.167 11v-6a2 2 0 0 0-2-2h-2a2 2 0 0 0-2 2v6M15.5 3h4.047a.6.6 0 0 1 .577.435l1.694 5.93a.57.57 0 0 1-.472.73c-.845.105-2.33.217-3.346-.095-.595-.183-1.358-.613-1.747-.845a.578.578 0 0 1-.278-.451L15.5 3Zm0 0 .47 5.639a.578.578 0 0 1-.28.55c-.402.237-1.122.636-1.69.811-1.493.46-2.507.46-4 0-.567-.175-1.288-.574-1.69-.812a.578.578 0 0 1-.28-.549L8.5 3m7 0h-7m0 0-.475 5.704a.578.578 0 0 1-.278.45c-.39.233-1.152.663-1.747.846-1.016.313-2.5.2-3.346.096a.57.57 0 0 1-.472-.732l1.694-5.929A.6.6 0 0 1 4.453 3H8.5Z"/></svg>
